svgs/thin/square-sliders-vertical.svg

<svg xmlns="http://www.w3.org/2000/svg" viewBox="0 0 448 512"><!-- Font Awesome Pro 6.0.0-alpha2 by @fontawesome - https://fontawesome.com License - https://fontawesome.com/license (Commercial License) --><path d="M136 256C131.578 256 128 259.594 128 264V408C128 412.406 131.578 416 136 416S144 412.406 144 408V264C144 259.594 140.422 256 136 256ZM168 160.014H143.994C143.994 160.008 144 160.006 144 160V104C144 99.594 140.422 96 136 96S128 99.594 128 104V160C128 160.006 128.006 160.008 128.006 160.014H104C86.326 160.014 72 174.34 72 192.014S86.326 224.014 104 224.014H168C185.672 224.014 200 209.687 200 192.014S185.672 160.014 168 160.014ZM168 208.014H104C95.178 208.014 88 200.836 88 192.014S95.178 176.014 104 176.014H168C176.822 176.014 184 183.191 184 192.014S176.822 208.014 168 208.014ZM312 352C307.578 352 304 355.594 304 360V408C304 412.406 307.578 416 312 416S320 412.406 320 408V360C320 355.594 316.422 352 312 352ZM344 256H320V104C320 99.594 316.422 96 312 96S304 99.594 304 104V256H280C262.326 256 248 270.326 248 288S262.326 320 280 320H344C361.672 320 376 305.674 376 288S361.672 256 344 256ZM344 304H280C271.178 304 264 296.822 264 288S271.178 272 280 272H344C352.822 272 360 279.178 360 288S352.822 304 344 304ZM384 32H64C28.654 32 0 60.654 0 96V416C0 451.346 28.654 480 64 480H384C419.348 480 448 451.346 448 416V96C448 60.654 419.348 32 384 32ZM432 416C432 442.467 410.467 464 384 464H64C37.533 464 16 442.467 16 416V96C16 69.533 37.533 48 64 48H384C410.467 48 432 69.533 432 96V416Z"/></svg>

<svg xmlns="http://www.w3.org/2000/svg" viewBox="0 0 448 512"><!--! Font Awesome Pro 6.4.0 by @fontawesome - https://fontawesome.com License - https://fontawesome.com/license (Commercial License) Copyright 2023 Fonticons, Inc. --><path d="M384 48c26.5 0 48 21.5 48 48V416c0 26.5-21.5 48-48 48H64c-26.5 0-48-21.5-48-48V96c0-26.5 21.5-48 48-48H384zM64 32C28.7 32 0 60.7 0 96V416c0 35.3 28.7 64 64 64H384c35.3 0 64-28.7 64-64V96c0-35.3-28.7-64-64-64H64zm72 64c-4.4 0-8 3.6-8 8v56H104c-17.7 0-32 14.3-32 32s14.3 32 32 32h64c17.7 0 32-14.3 32-32s-14.3-32-32-32H144V104c0-4.4-3.6-8-8-8zm0 80h32c8.8 0 16 7.2 16 16s-7.2 16-16 16H104c-8.8 0-16-7.2-16-16s7.2-16 16-16h32zm0 80c-4.4 0-8 3.6-8 8V408c0 4.4 3.6 8 8 8s8-3.6 8-8V264c0-4.4-3.6-8-8-8zM320 104c0-4.4-3.6-8-8-8s-8 3.6-8 8V256H280c-17.7 0-32 14.3-32 32s14.3 32 32 32h64c17.7 0 32-14.3 32-32s-14.3-32-32-32H320V104zM280 272h32 32c8.8 0 16 7.2 16 16s-7.2 16-16 16H280c-8.8 0-16-7.2-16-16s7.2-16 16-16zm40 88c0-4.4-3.6-8-8-8s-8 3.6-8 8v48c0 4.4 3.6 8 8 8s8-3.6 8-8V360z"/></svg>
